!!!CDT:
!!!PTL: Quarto libro de madrigali a cinque et sei voci, con alcuni Dialoghi a otto et a dieci
!!!PPP: Venice
!!!PPR: Angelo Gardano
!!!PDT: 1591
!!!RISM: G 4805
!!!rime:
!!!AGN: Madrigal
!!!SCT: Tsg14001b
!!!SCA: Tsg14001b
!!!voices:
!!!COM: Guami, Gioseffo
!!!OTL: Usciva omai dal molle e fresco grembo
**kern	**text	**kern	**text
*part2	*part2	*part1	*part1
*staff2	*staff2	*staff1	*staff1
*I"Basso	*	*I"Canto	*
*I'B	*	*I'C	*
*oclefF4	*	*oclefC1	*
*clefF4	*	*clefG2	*
*k[b-]	*	*k[b-]	*
*F:	*	*F:	*
*M2/1	*	*M2/1	*
*omet(C|)	*	*omet(C|)	*
=1	=1	=1	=1
!!LO:TX:a:t=A Cinque [Alto, Tenore, and Quinto missing]
1r	.	2g	U-
.	.	4dd	-sci-
.	.	4dd	-va ho-
2r	.	1dd	-mai
2D	U-	.	.
=2	=2	=2	=2
4G	-sci-	2d	dal
4G	-va ho-	.	.
2G	-mai	1B-y	mol-
2GG	dal	.	.
[2EE-X	mol-	2B-y	-le e
=3	=3	=3	=3
2EE-]	.	2.e-X	fre-
2EE-i	-le e	.	.
.	.	4e-i	-sco
2.BB-y	fre-	1d	grem-
4BB-y	-sco	.	.
=4	=4	=4	=4
1BB-y	grem-	1f	-bo
2BB-y	-bo	2r	.
2BB-y	De	2b-y	De
=5	=5	=5	=5
2BB-y	la	2b-y	la
2FF	gran	2a	gran
2GG	ma-	2g	ma-
2GG	-dre	2g	-dre
=6	=6	=6	=6
1C	sua	1g	sua
1FF	la	1r	.
=7	=7	=7	=7
2FF	not-	0r	.
2FF	-te o-	.	.
1GG	-scu-	.	.
=8	=8	=8	=8
1GG	-ra,	1r	.
1r	.	2r	.
.	.	[2a	Au-
=9	=9	=9	=9
0r	.	4a]	.
.	.	4a	-re
.	.	2a	lie-
.	.	4b-y	-vi
.	.	4b-y	por-
.	.	[2a	-tan-
=10	=10	=10	=10
1r	.	2a]	.
.	.	2a	-do,
2r	.	4r	.
.	.	2a	Au-
[2D	Au-	.	.
.	.	4a	-re
=11	=11	=11	=11
4D]	.	2dd	lie-
4D	-re	.	.
2A	lie-	4cc#X	-vi
.	.	4cc#i	por-
4F#X	-vi	4.dd	-tan-
4F#i	por-	.	.
.	.	8cc#X	.
2G	-tan-	2bnX	.
=12	=12	=12	=12
1C	-d'e	2ccnXi	-do
.	.	4r	.
.	.	4g	e
2C	lar-	2g	lar-
2C	-go	2g	-go
=13	=13	=13	=13
2GG	bem-	2g	nem-
2C	-bo	4g	-bo
.	.	4g	Di
2r	.	4a	sua
.	.	4a	ru-
2C	Di	4.g	-gia-
.	.	8a	.
=14	=14	=14	=14
4BB-y	sua	2b-y	.
4BB-y	ru-	.	.
2BB-y	-gia-	4f	-da,
.	.	4f	Di
4FF	-da,	4f	sua
4F	Di	4f	ru-
4F	sua	4.a	-gia-
4D	ru-	.	.
.	.	8b-y	.
=15	=15	=15	=15
2C	-gia-	2cc	.
2BB-y	-da	4dd	-da
.	.	4d	pre-
4r	.	4a	-ti-
4GG	pre-	2b-y	-o-
4GG	-ti-	.	.
[4D	-o-	[4a	-sa e
=16	=16	=16	=16
4D]	.	4a]	.
4GG	-sa e	2g	pu-
2D	pu-	.	.
.	.	4f#i	.
2GG	-ra;	2g	-ra;
2r	.	4r	.
.	.	[4g	E
=17	=17	=17	=17
1r	.	8g]	.
.	.	8a	sco-
.	.	4b-y	-ten-
.	.	4a	-do
.	.	4d	del
4r	.	2e	vel,
4.C	E	.	.
.	.	2r	.
8AA	sco-	.	.
4GG	-ten-	.	.
=18	=18	=18	=18
4D	-do	2r	.
4BB-y	del	.	.
2F	vel	4r	.
.	.	4.a	E
1r	.	.	.
.	.	8b-y	sco-
.	.	4cc	-ten-
.	.	4b-y	-do
.	.	4a	del
=19	=19	=19	=19
2r	.	2g	vel
2.F	l'hu-	2.c	l'hu-
4F	-mi-	4c	-mi-
2FF	-do	2c	-do
=20	=20	=20	=20
1GG	lem-	1B-y	lem-
[1FF	-bo,	[1A	-bo,
=21	=21	=21	=21
1FF]	.	1A]	.
1r	.	2r	.
.	.	[2d	l'hu-
=22	=22	=22	=22
0r	.	4d]	.
.	.	4d	-mi-
.	.	2c	-do
.	.	1d	lem-
=23	=23	=23	=23
4r	.	1d	-bo,
2G	Ne	.	.
4G	spar-	.	.
2G	-ge-	4r	.
.	.	2g	Ne
4G	-va i	.	.
4G	fio-	4g	spar-
=24	=24	=24	=24
8CL	-ret-	2e	-ge-
8D	.	.	.
8E	.	.	.
8FJ	.	.	.
4G	.	2d	-va,
8FL	.	.	.
8EJ	.	.	.
8DL	.	4r	.
8E	.	.	.
8F	.	2a	Ne
8GJ	.	.	.
2A	.	.	.
.	.	4a	spar-
=25	=25	=25	=25
1G	-ti,	2b-y	-ge-
.	.	4g	-va i
.	.	4b-y	fio-
2.D	Ne	8aL	-ret-
.	.	8g	.
.	.	8f	.
.	.	8g	.
.	.	8a	.
.	.	8g	.
4D	spar-	8a	.
.	.	8b-yJ	.
=26	=26	=26	=26
2A	-ge-	2cc	.
4F	-va i	2a	-ti e
4F	fio-	.	.
8DL	-ret-	4a	la
8C	.	.	.
8BB-y	.	4d	ver-
8C	.	.	.
8D	.	[2f	-du-
8C	.	.	.
8D	.	.	.
8EJ	.	.	.
=27	=27	=27	=27
2F	.	2f]	.
2C	-ti e	2e	-ra;
2G	la	1r	.
2G	ver-	.	.
=28	=28	=28	=28
1F	-du-	2r	.
.	.	2a	E i
2F	-ra;	4a	ven-
.	.	4cc	-ti-
2r	.	8gL	-cel-
.	.	8f	.
.	.	8g	.
.	.	8aJ	.
=29	=29	=29	=29
0r	.	2b-y	.
.	.	2a	-li,
.	.	4.a	di-
.	.	8a	-bat-
.	.	4a	-ten-
.	.	4a	-do
=30	=30	=30	=30
2r	.	2g	l'a-
2C	E i	2g	-li,
4E	ven-	2r	.
4E	-ti-	.	.
2G	-cel-	4r	.
.	.	[4g	di-
=31	=31	=31	=31
2D	-li,	4g]	.
.	.	4f	-bat-
4.GG	di-	4b-y	-ten-
.	.	4b-y	-do
8GG	-bat-	.	.
4GG	-ten-	2g	l'a-
4GG	-do	.	.
2D	l'a-	2a	-li,
=32	=32	=32	=32
1AA	-li,	2r	.
.	.	2a	Lu-
2r	.	2f	-sin-
2D	Lu-	[2f	-ga-
=33	=33	=33	=33
2BB-y	-sin-	4f]	.
.	.	4f	-va-
[2BB-y	-ga-	2d	-no il
4BB-]	.	1d	son-
4BB-y	-va-	.	.
2BB-y	-no il	.	.
=34	=34	=34	=34
1GG	son-	2d	-no
.	.	1g	de'
1GG	-no	.	.
.	.	2g	mor-
=35	=35	=35	=35
2C	de'	1.e-X	-ta-
2C	mor-	.	.
[1E-X	-ta-	.	.
.	.	2B-y	-li,
=36	=36	=36	=36
1E-]	.	1r	.
1D	-li,	2r	.
.	.	2d	Lu-
=37	=37	=37	=37
2r	.	2d	-sin-
2GG	Lu-	2.g	-ga-
2GG	-sin-	.	.
.	.	4g	-va-
[2C	-ga-	2g	-no il
=38	=38	=38	=38
4C]	.	1c	son-
4C	-va-	.	.
2C	-no il	.	.
1FF	son-	2c	-no
.	.	[2c	de'
=39	=39	=39	=39
2FF	-no	2c]	.
[2FF	de'	2c	mor-
2FF]	.	[1c	-ta-
2FF	mor-	.	.
=40	=40	=40	=40
0C	-ta-	0c]	.
=41	=41	=41	=41
0GGl	-li.	0dl	-li.
==	==	==	==
*-	*-	*-	*-
!!!system-decoration: [*]
!!!RDF**kern: i = editorial accidental
!!!RDF**kern: l = terminal long
!!!ENC: Emiliano Ricciardi
!!!END:
!!!EED: Ricciardi, Emiliano
!!!EEV: 2020/08/04
!!!YEC: Copyright 2020 Emiliano Ricciardi, All Rights Reserved
!!!ONB: Translated from MusicXML on 2020/08/04 and edited by Craig Stuart Sapp
!!@@BEGIN:	VERSEDATA
!!@CATALOGNUM:	Tsg14001
!!@LAST_MODIFIED: 2020/07/12
!!@TITLE:		Usciva omai dal molle e fresco grembo
!!@CANTO:		XIV
!!@OTTAVA:	1
!!@MANUSRC:	G-Al, G-Au, G-Br<sub>1</sub>, G-Br<sub>2</sub>, G-Es<sub>1</sub>, G-Es<sub>2</sub>, G-Es<sub>3</sub>, G-F, G-Fr, G-Fr<sub>1</sub>, G-Fr<sub>2</sub>, G-Mc<sub>1</sub>, G-Mg, G-Mr, G-Mt, G-N
!!@PRINTSRC:	G-1580CM, G-1581B, G-1581CV, G-1581R, G-1581MR, G-1581P, G-1581V, G-1581V<sub>bis</sub>, G-1582C, G-1582M, G-1582MC, G-1582P, G-1582SC, G-1582SC<sub>bis</sub>, G-1583S, G-1584O, G-1584S, G-1585C, G-1585S, G-1588S, G-1589S, G-1590B, G-1590S, G-1592S, G-1593S, G-1594C, G-1595C, G-1597C, G-1598C, G-1599C, G-1600C, G-1600S, G-1601C, G-1601R, G-1602C, G-1604C, G-1604Cl, G-1604F, G-1604P, G-1606B, G-1606B<sub>bis</sub>, G-1606L, G-1607ZR, G-1608DP, G-1609GC, G-1610M, G-1611S, G-1611V, G-1612P, G-1613M, G-1613P, G-1613V, G-1615P, G-1616M, G-1617P, G-1619B, G-1619V, G-1620M, G-1620S, G-1621R, G-1624I, G-1624MT, G-1625C, G-1625S, G-1625SS, G-1626C, G-1626Co, G-1627M, G-1628T, G-1628Tu, G-1630L, G-1630T, G-1632FT, G-1639CF, G-1642M, G-1643I, G-1644P, G-1644S
!!@@BEGIN:	VERSES
!!@ABOUTIT:
!!@ABOUTEN:
!!@EDITOR:	Angelo Solerti
!!@EDITION_TITLE: Gerusalemme liberata. Poema eroico di Torquato Tasso. Edizione critica sui manoscritti e le prime stampe.
!!@EDITION_LOC:	Florence
!!@EDITION_PUB:	G. Barbera
!!@EDITION_DATE:  1895
!!@EDITION_VOL:
!!@EDITION_PAGE:
!!@TRANSLATOR:	Emiliano Ricciardi
!!@VERSE:
!!	Usciva omai dal molle e fresco grembo
!!	Della gran madre sua la notte oscura;
!!	Aure lievi portando, e largo nembo
!!	Di sua rugiada preziosa e pura:
!!	E scuotendo del vel l’umido lembo
!!	Ne spargeva i fioretti e la verdura:
!!	E i venticelli, dibattendo l’ali,
!!	Lusingavano il sonno de’ mortali.
!!@MVERSE_DATE: 20230824
!!@MVERSE:
!!	Usciva omai dal molle e fresco grembo			=a
!!	Della gran madre sua la notte oscura;			=b
!!	Aure lievi portando, e largo nembo			=a
!!	Di sua rugiada preziosa e pura:				=b
!!	E scuotendo del vel l’umido lembo			=a
!!	Ne spargeva i fioretti e la verdura:			=b
!!	E i venticelli, dibattendo l’ali,			=c
!!	Lusingavano il sonno de’ mortali.			=c
!!@TVERSE:
!!	Already emerging from the soft and fresh hollow
!!	Of his great mother was the dark night;
!!	Bearing light breezes and a broad cloud
!!	Of its dew, precious and pure:
!!	And shaking the damp hem of the veil
!!	[The night] was scattering [droplets upon] little flowers and the verge:
!!	And the little winds, beating their wings,
!!	Were tempting the sleep from mortals.
!!@@END:		VERSES
!!@OTHER_CRIT_ED:  Torquato Tasso, <i>Gerusalemme liberata</i>, ed. Lanfranco Caretti, 2 vols. (Bari: Laterza, 1967).
!!@ATTRIBUTION_ABOUT:
!!@DATING:	mid-1560s through 1570s
!!@DEDICATEE:	Duke Alfonso II d'Este
!!@COMMENTARY:
!!@@END:		VERSEDATA
!!@@BEGIN: SETTING
!!@CATALOGNUM:	Tsg14001b
!!@CANTO:		XIV
!!@OTTAVA:	1
!!@TITLE:	Usciva omai dal molle e fresco grembo
!!@SETTINGTITLE: Usciva homai dal molle e fresco grembo
!!@COMPOSER:	Guami, Gioseffo
!!@PARTS:		1 of 1
!!@PRINCEPSTITLE:	Quarto libro de madrigali a cinque et sei voci, con alcuni Dialoghi a otto et a dieci
!!@PRINCEPSLOC:	Venice
!!@NORMLOC:	Venice
!!@NORMPUB:	Angelo Gardano
!!@NORMPUBSHORT:	Gardano
!!@PRINCEPSPUB:	Angelo Gardano
!!@PRINCEPSYEAR:	1591
!!@PRINCEPSRISM:	G 4805
!!@OVOICES:	5
!!@EXTANTVOICES:	2
!!@OMENSURATION:	Cut-c
!!@OCLEFS:	C1,F4
!!@OTIME:		
!!@OKEYSIG:	b-
!!@FINAL:	G
!!@TIMPEDITOR:		Ricciardi, Emiliano
!!@REPRINTS:	
!!@@END: SETTING
